;FLAVOR:Marlin
;TIME:7069
;Filament used: 4.25186m
;Layer height: 0.1
;Generated with Cura_SteamEngine 3.2.1
M190 S60
M104 S200
M109 S200
M82 ;absolute extrusion mode
G21 ;metric values
G90 ;absolute positioning
M82 ;set extruder to absolute mode
M107 ;start with the fan off
G28 X0 Y0 ;move X/Y to min endstops
G28 Z0 ;move Z to min endstops
G1 Z15.0 F9000 ;move the platform down 15mm
G92 E0 ;zero the extruded length
G1 F200 E3 ;extrude 3mm of feed stock
G92 E0 ;zero the extruded length again
G1 F9000
;Put printing message on LCD screen
M117 Printing...
;LAYER_COUNT:224
;LAYER:0
M107
G0 F3600 X71.623 Y71.849 Z0.3
;TYPE:SKIRT
G1 F1800 X72.222 Y71.334 E0.03941
G1 X72.87 Y70.883 E0.0788
G1 X73.561 Y70.499 E0.11824
G1 X74.286 Y70.187 E0.15762
G1 X74.31 Y70.18 E0.15886
G1 X74.623 Y69.849 E0.18159
G1 X75.222 Y69.334 E0.221
G1 X75.87 Y68.883 E0.26039
G1 X76.561 Y68.499 E0.29983
G1 X77.286 Y68.187 E0.33921
G1 X78.039 Y67.95 E0.37859
G1 X78.813 Y67.791 E0.41801
G1 X79.598 Y67.71 E0.45738
G1 X80 Y67.7 E0.47745
G1 X120 Y67.7 E2.47305
G1 X120.789 Y67.74 E2.51247
G1 X121.569 Y67.859 E2.55183
G1 X122.334 Y68.057 E2.59126
G1 X123.074 Y68.331 E2.63063
G1 X123.783 Y68.679 E2.67003
G1 X124.454 Y69.097 E2.70947
G1 X125.078 Y69.58 E2.74884
G1 X125.195 Y69.691 E2.75688
G1 X125.574 Y69.831 E2.77704
G1 X126.283 Y70.179 E2.81644
G1 X126.954 Y70.597 E2.85588
G1 X127.578 Y71.08 E2.89525
G1 X128.151 Y71.623 E2.93464
G1 X128.666 Y72.222 E2.97405
G1 X129.117 Y72.87 E3.01344
G1 X129.501 Y73.561 E3.05288
G1 X129.813 Y74.286 E3.09225
G1 X129.82 Y74.31 E3.0935
G1 X130.151 Y74.623 E3.11623
G1 X130.666 Y75.222 E3.15564
G1 X131.117 Y75.87 E3.19503
G1 X131.501 Y76.561 E3.23447
G1 X131.813 Y77.286 E3.27384
G1 X132.05 Y78.039 E3.31323
G1 X132.209 Y78.813 E3.35265
G1 X132.29 Y79.598 E3.39202
G1 X132.3 Y80 E3.41208
G1 X132.3 Y120 E5.40769
G1 X132.26 Y120.789 E5.44711
G1 X132.141 Y121.569 E5.48647
G1 X131.943 Y122.334 E5.52589
G1 X131.669 Y123.074 E5.56526
G1 X131.321 Y123.783 E5.60467
G1 X130.903 Y124.454 E5.64411
G1 X130.42 Y125.078 E5.68347
G1 X130.309 Y125.195 E5.69152
G1 X130.169 Y125.574 E5.71168
G1 X129.821 Y126.283 E5.75108
G1 X129.403 Y126.954 E5.79052
G1 X128.92 Y127.578 E5.82989
G1 X128.377 Y128.151 E5.86927
G1 X127.778 Y128.666 E5.90868
G1 X127.13 Y129.117 E5.94807
G1 X126.439 Y129.501 E5.98751
G1 X125.714 Y129.813 E6.02689
G1 X125.69 Y129.82 E6.02814
G1 X125.377 Y130.151 E6.05086
G1 X124.778 Y130.666 E6.09028
G1 X124.13 Y131.117 E6.12966
G1 X123.439 Y131.501 E6.1691
G1 X122.714 Y131.813 E6.20848
G1 X121.961 Y132.05 E6.24786
G1 X121.187 Y132.209 E6.28729
G1 X120.402 Y132.29 E6.32666
G1 X120 Y132.3 E6.34672
G1 X80 Y132.3 E8.34233
G1 X79.211 Y132.26 E8.38174
G1 X78.431 Y132.141 E8.42111
G1 X77.666 Y131.943 E8.46053
G1 X76.926 Y131.669 E8.4999
G1 X76.217 Y131.321 E8.5393
G1 X75.546 Y130.903 E8.57874
G1 X74.922 Y130.42 E8.61811
G1 X74.805 Y130.309 E8.62616
G1 X74.426 Y130.169 E8.64631
G1 X73.717 Y129.821 E8.68572
G1 X73.046 Y129.403 E8.72516
G1 X72.422 Y128.92 E8.76453
G1 X71.849 Y128.377 E8.80391
G1 X71.334 Y127.778 E8.84332
G1 X70.883 Y127.13 E8.88271
G1 X70.499 Y126.439 E8.92215
G1 X70.187 Y125.714 E8.96153
G1 X70.18 Y125.69 E8.96277
G1 X69.849 Y125.377 E8.9855
G1 X69.334 Y124.778 E9.02491
G1 X68.883 Y124.13 E9.0643
G1 X68.499 Y123.439 E9.10374
G1 X68.187 Y122.714 E9.14312
G1 X67.95 Y121.961 E9.1825
G1 X67.791 Y121.187 E9.22192
G1 X67.71 Y120.402 E9.26129
G1 X67.7 Y120 E9.28136
G1 X67.7 Y80 E11.27696
G1 X67.74 Y79.211 E11.31638
G1 X67.859 Y78.431 E11.35574
G1 X68.057 Y77.666 E11.39517
G1 X68.331 Y76.926 E11.43453
G1 X68.679 Y76.217 E11.47394
G1 X69.097 Y75.546 E11.51338
G1 X69.58 Y74.922 E11.55275
G1 X69.691 Y74.805 E11.56079
G1 X69.831 Y74.426 E11.58095
G1 X70.179 Y73.717 E11.62035
G1 X70.597 Y73.046 E11.65979
G1 X71.08 Y72.422 E11.69916
G1 X71.623 Y71.849 E11.73855
G0 F3600 X72.016 Y72.03
G1 F1800 X72.611 Y71.542 E11.77694
G1 X73.253 Y71.119 E11.81529
G1 X73.936 Y70.764 E11.8537
G1 X74.515 Y70.536 E11.88474
G1 X75.016 Y70.03 E11.92027
G1 X75.611 Y69.542 E11.95866
G1 X76.253 Y69.119 E11.99702
G1 X76.936 Y68.764 E12.03542
G1 X77.651 Y68.483 E12.07375
G1 X78.393 Y68.277 E12.11217
G1 X79.151 Y68.149 E12.15052
G1 X80 Y68.1 E12.19295
G1 X120 Y68.1 E14.18855
G1 X120.768 Y68.14 E14.22692
G1 X121.528 Y68.259 E14.2653
G1 X122.271 Y68.457 E14.30366
G1 X122.99 Y68.731 E14.34205
G1 X123.676 Y69.078 E14.3804
G1 X124.323 Y69.494 E14.41878
G1 X124.923 Y69.975 E14.45714
G1 X124.989 Y70.04 E14.46177
G1 X125.49 Y70.231 E14.48852
G1 X126.176 Y70.578 E14.52687
G1 X126.823 Y70.994 E14.56524
G1 X127.423 Y71.475 E14.60361
G1 X127.97 Y72.016 E14.64199
G1 X128.458 Y72.611 E14.68038
G1 X128.881 Y73.253 E14.71874
G1 X129.236 Y73.936 E14.75714
G1 X129.464 Y74.515 E14.78819
G1 X129.97 Y75.016 E14.82371
G1 X130.458 Y75.611 E14.86211
G1 X130.881 Y76.253 E14.90046
G1 X131.236 Y76.936 E14.93887
G1 X131.517 Y77.651 E14.97719
G1 X131.723 Y78.393 E15.01561
G1 X131.851 Y79.151 E15.05396
G1 X131.9 Y80 E15.09639
G1 X131.9 Y120 E17.092
G1 X131.86 Y120.768 E17.13037
G1 X131.741 Y121.528 E17.16875
G1 X131.543 Y122.271 E17.20711
G1 X131.269 Y122.99 E17.2455
G1 X130.922 Y123.676 E17.28385
G1 X130.506 Y124.323 E17.32223
G1 X130.025 Y124.923 E17.36059
G1 X129.96 Y124.989 E17.36521
G1 X129.769 Y125.49 E17.39196
G1 X129.422 Y126.176 E17.43032
G1 X129.006 Y126.823 E17.46869
G1 X128.525 Y127.423 E17.50706
G1 X127.984 Y127.97 E17.54544
G1 X127.389 Y128.458 E17.58383
G1 X126.747 Y128.881 E17.62219
G1 X126.064 Y129.236 E17.66059
G1 X125.485 Y129.464 E17.69164
G1 X124.984 Y129.97 E17.72716
G1 X124.389 Y130.458 E17.76555
G1 X123.747 Y130.881 E17.80391
G1 X123.064 Y131.236 E17.84231
G1 X122.349 Y131.517 E17.88064
G1 X121.607 Y131.723 E17.91906
G1 X120.849 Y131.851 E17.95741
G1 X120 Y131.9 E17.99984
G1 X80 Y131.9 E19.99545
G1 X79.232 Y131.86 E20.03381
G1 X78.472 Y131.741 E20.07219
G1 X77.729 Y131.543 E20.11056
G1 X77.01 Y131.269 E20.14894
G1 X76.324 Y130.922 E20.1873
G1 X75.677 Y130.506 E20.22567
G1 X75.077 Y130.025 E20.26404
G1 X75.011 Y129.96 E20.26866
G1 X74.51 Y129.769 E20.29541
G1 X73.824 Y129.422 E20.33376
G1 X73.177 Y129.006 E20.37214
G1 X72.577 Y128.525 E20.4105
G1 X72.03 Y127.984 E20.44889
G1 X71.542 Y127.389 E20.48728
G1 X71.119 Y126.747 E20.52564
G1 X70.764 Y126.064 E20.56404
G1 X70.536 Y125.485 E20.59508
G1 X70.03 Y124.984 E20.63061
G1 X69.542 Y124.389 E20.669
G1 X69.119 Y123.747 E20.70736
G1 X68.764 Y123.064 E20.74576
G1 X68.483 Y122.349 E20.78409
G1 X68.277 Y121.607 E20.82251
G1 X68.149 Y120.849 E20.86086
G1 X68.1 Y120 E20.90329
G1 X68.1 Y80 E22.89889
G1 X68.14 Y79.232 E22.93726
G1 X68.259 Y78.472 E22.97564
G1 X68.457 Y77.729 E23.014
G1 X68.731 Y77.01 E23.05239
G1 X69.078 Y76.324 E23.09074
G1 X69.494 Y75.677 E23.12912
G1 X69.975 Y75.077 E23.16748
G1 X70.04 Y75.011 E23.17211
G1 X70.231 Y74.51 E23.19886
G1 X70.578 Y73.824 E23.23721
G1 X70.994 Y73.177 E23.27559
G1 X71.475 Y72.577 E23.31395
G1 X72.016 Y72.03 E23.35233
G0 F3600 X72.408 Y72.216
G1 F1800 X72.998 Y71.757 E23.38963
G1 X73.634 Y71.362 E23.42698
G1 X74.308 Y71.038 E23.46429
G1 X74.751 Y70.881 E23.48774
G1 X74.871 Y70.737 E23.49709
G1 X75.408 Y70.216 E23.53442
G1 X75.998 Y69.757 E23.57171
G1 X76.634 Y69.362 E23.60906
G1 X77.308 Y69.038 E23.64637
G1 X78.013 Y68.788 E23.68369
G1 X78.741 Y68.614 E23.72103
G1 X79.483 Y68.519 E23.75835
G1 X80 Y68.5 E23.78417
G1 X120 Y68.5 E25.77977
G1 X120.747 Y68.54 E25.81709
G1 X121.485 Y68.659 E25.85439
G1 X122.207 Y68.857 E25.89174
G1 X122.903 Y69.13 E25.92904
G1 X123.566 Y69.477 E25.96637
G1 X124.189 Y69.892 E26.00372
G1 X124.763 Y70.371 E26.04102
G1 X124.775 Y70.384 E26.0419
G1 X125.403 Y70.63 E26.07555
G1 X126.066 Y70.977 E26.11288
G1 X126.689 Y71.392 E26.15023
G1 X127.263 Y71.871 E26.18753
G1 X127.784 Y72.408 E26.22486
G1 X128.243 Y72.998 E26.26215
G1 X128.638 Y73.634 E26.2995
G1 X128.962 Y74.308 E26.33681
G1 X129.119 Y74.751 E26.36026
G1 X129.263 Y74.871 E26.36961
G1 X129.784 Y75.408 E26.40694
G1 X130.243 Y75.998 E26.44423
G1 X130.638 Y76.634 E26.48158
G1 X130.962 Y77.308 E26.51889
G1 X131.212 Y78.013 E26.55621
G1 X131.386 Y78.741 E26.59355
G1 X131.481 Y79.483 E26.63088
G1 X131.5 Y80 E26.65669
G1 X131.5 Y120 E28.65229
G1 X131.46 Y120.747 E28.68962
G1 X131.341 Y121.485 E28.72691
G1 X131.143 Y122.207 E28.76426
G1 X130.87 Y122.903 E28.80156
G1 X130.523 Y123.566 E28.83889
G1 X130.108 Y124.189 E28.87624
G1 X129.629 Y124.763 E28.91354
G1 X129.616 Y124.775 E28.91442
G1 X129.37 Y125.403 E28.94807
G1 X129.023 Y126.066 E28.9854
G1 X128.608 Y126.689 E29.02275
G1 X128.129 Y127.263 E29.06005
G1 X127.592 Y127.784 E29.09738
G1 X127.002 Y128.243 E29.13467
G1 X126.366 Y128.638 E29.17202
G1 X125.692 Y128.962 E29.20933
G1 X125.249 Y129.119 E29.23278
G1 X125.129 Y129.263 E29.24213
G1 X124.592 Y129.784 E29.27946
G1 X124.002 Y130.243 E29.31675
G1 X123.366 Y130.638 E29.3541
G1 X122.692 Y130.962 E29.39141
G1 X121.987 Y131.212 E29.42873
G1 X121.259 Y131.386 E29.46608
G1 X120.517 Y131.481 E29.5034
G1 X120 Y131.5 E29.52921
G1 X80 Y131.5 E31.52482
G1 X79.253 Y131.46 E31.56214
G1 X78.515 Y131.341 E31.59943
G1 X77.793 Y131.143 E31.63678
G1 X77.097 Y130.87 E31.67408
G1 X76.434 Y130.523 E31.71141
G1 X75.811 Y130.108 E31.74876
G1 X75.237 Y129.629 E31.78606
G1 X75.225 Y129.616 E31.78694
G1 X74.597 Y129.37 E31.82059
G1 X73.934 Y129.023 E31.85792
G1 X73.311 Y128.608 E31.89527
G1 X72.737 Y128.129 E31.93257
G1 X72.216 Y127.592 E31.9699
G1 X71.757 Y127.002 E32.00719
G1 X71.362 Y126.366 E32.04454
G1 X71.038 Y125.692 E32.08185
G1 X70.881 Y125.249 E32.1053
G1 X70.737 Y125.129 E32.11465
G1 X70.216 Y124.592 E32.15198
G1 X69.757 Y124.002 E32.18927
G1 X69.362 Y123.366 E32.22663
G1 X69.038 Y122.692 E32.26394
G1 X68.788 Y121.987 E32.30125
G1 X68.614 Y121.259 E32.3386
G1 X68.519 Y120.517 E32.37592
G1 X68.5 Y120 E32.40173
G1 X68.5 Y80 E34.39734
G1 X68.54 Y79.253 E34.43466
G1 X68.659 Y78.515 E34.47195
G1 X68.857 Y77.793 E34.5093
G1 X69.13 Y77.097 E34.5466
G1 X69.477 Y76.434 E34.58394
G1 X69.892 Y75.811 E34.62128
G1 X70.371 Y75.237 E34.65858
G1 X70.384 Y75.225 E34.65946
G1 X70.63 Y74.597 E34.69311
G1 X70.977 Y73.934 E34.73045
G1 X71.392 Y73.311 E34.76779
G1 X71.871 Y72.737 E34.80509
G1 X72.408 Y72.216 E34.84242
G0 F3600 X72.265 Y72.902
G1 F1800 X72.799 Y72.409 E34.87868
G1 X73.384 Y71.979 E34.9149
G1 X74.013 Y71.615 E34.95116
G1 X74.678 Y71.322 E34.98741
G1 X74.984 Y71.226 E35.00341
G1 X75.265 Y70.902 E35.02481
G1 X75.799 Y70.409 E35.06107
G1 X76.384 Y69.979 E35.09729
G1 X77.013 Y69.615 E35.13355
G1 X77.678 Y69.322 E35.1698
G1 X78.371 Y69.104 E35.20604
G1 X79.083 Y68.964 E35.24225
G1 X80 Y68.9 E35.28811
G1 X120 Y68.9 E37.28372
G1 X120.725 Y68.94 E37.31994
G1 X121.442 Y69.059 E37.3562
G1 X122.141 Y69.257 E37.39245
G1 X122.814 Y69.53 E37.42868
G1 X123.453 Y69.875 E37.46491
G1 X124.05 Y70.289 E37.50115
G1 X124.564 Y70.735 E37.53511
G1 X124.641 Y70.757 E37.5391
G1 X125.314 Y71.03 E37.57533
G1 X125.953 Y71.375 E37.61156
G1 X126.55 Y71.789 E37.64781
G1 X127.098 Y72.265 E37.68402
G1 X127.591 Y72.799 E37.72028
G1 X128.021 Y73.384 E37.7565
G1 X128.385 Y74.013 E37.79276
G1 X128.678 Y74.678 E37.82902
G1 X128.774 Y74.984 E37.84502
G1 X129.098 Y75.265 E37.86641
G1 X129.591 Y75.799 E37.90267
G1 X130.021 Y76.384 E37.93889
G1 X130.385 Y77.013 E37.97515
G1 X130.678 Y77.678 E38.0114
G1 X130.896 Y78.371 E38.04765
G1 X131.036 Y79.083 E38.08385
G1 X131.1 Y80 E38.12971
G1 X131.1 Y120 E40.12532
G1 X131.06 Y120.725 E40.16155
G1 X130.941 Y121.442 E40.19781
G1 X130.743 Y122.141 E40.23405
G1 X130.47 Y122.814 E40.27028
G1 X130.125 Y123.453 E40.30651
G1 X129.711 Y124.05 E40.34276
G1 X129.265 Y124.564 E40.37671
G1 X129.243 Y124.641 E40.38071
G1 X128.97 Y125.314 E40.41694
G1 X128.625 Y125.953 E40.45317
G1 X128.211 Y126.55 E40.48941
G1 X127.735 Y127.098 E40.52563
G1 X127.201 Y127.591 E40.56189
G1 X126.616 Y128.021 E40.59811
G1 X125.987 Y128.385 E40.63437
G1 X125.322 Y128.678 E40.67062
G1 X125.016 Y128.774 E40.68662
G1 X124.735 Y129.098 E40.70802
G1 X124.201 Y129.591 E40.74428
G1 X123.616 Y130.021 E40.7805
G1 X122.987 Y130.385 E40.81675
G1 X122.322 Y130.678 E40.85301
G1 X121.629 Y130.896 E40.88925
G1 X120.917 Y131.036 E40.92546
G1 X120 Y131.1 E40.97132
G1 X80 Y131.1 E42.96692
G1 X79.275 Y131.06 E43.00315
G1 X78.558 Y130.941 E43.03941
G1 X77.859 Y130.743 E43.07566
G1 X77.186 Y130.47 E43.11189
G1 X76.547 Y130.125 E43.14812
G1 X75.95 Y129.711 E43.18436
G1 X75.436 Y129.265 E43.21832
G1 X75.359 Y129.243 E43.22231
G1 X74.686 Y128.97 E43.25854
G1 X74.047 Y128.625 E43.29477
G1 X73.45 Y128.211 E43.33102
G1 X72.902 Y127.735 E43.36723
G1 X72.409 Y127.201 E43.40349
G1 X71.979 Y126.616 E43.43971
G1 X71.615 Y125.987 E43.47597
G1 X71.322 Y125.322 E43.51222
G1 X71.226 Y125.016 E43.52823
G1 X70.902 Y124.735 E43.54962
G1 X70.409 Y124.201 E43.58588
G1 X69.979 Y123.616 E43.6221
G1 X69.615 Y122.987 E43.65836
G1 X69.322 Y122.322 E43.69461
G1 X69.104 Y121.629 E43.73086
G1 X68.964 Y120.917 E43.76706
G1 X68.9 Y120 E43.81292
G1 X68.9 Y80 E45.80853
G1 X68.94 Y79.275 E45.84475
G1 X69.059 Y78.558 E45.88102
G1 X69.257 Y77.859 E45.91726
G1 X69.53 Y77.186 E45.95349
G1 X69.875 Y76.547 E45.98972
G1 X70.289 Y75.95 E46.02597
G1 X70.735 Y75.436 E46.05992
G1 X70.757 Y75.359 E46.06392
G1 X71.03 Y74.686 E46.10015
G1 X71.375 Y74.047 E46.13638
G1 X71.789 Y73.45 E46.17262
G1 X72.265 Y72.902 E46.20884
G0 F3600 X72.659 Y73.073
G1 F1800 X73.189 Y72.609 E46.24398
G1 X73.768 Y72.209 E46.27909
G1 X74.389 Y71.877 E46.31422
G1 X75.043 Y71.617 E46.34933
G1 X75.204 Y71.574 E46.35765
G1 X75.659 Y71.073 E46.39141
G1 X76.189 Y70.609 E46.42656
G1 X76.768 Y70.209 E46.46166
G1 X77.389 Y69.877 E46.4968
G1 X78.043 Y69.617 E46.53191
G1 X78.723 Y69.433 E46.56705
G1 X79.419 Y69.327 E46.60218
G1 X80 Y69.3 E46.6312
G1 X120 Y69.3 E48.6268
G1 X120.703 Y69.34 E48.66193
G1 X121.397 Y69.459 E48.69706
G1 X122.072 Y69.657 E48.73216
G1 X122.721 Y69.929 E48.76726
G1 X123.335 Y70.274 E48.8024
G1 X123.906 Y70.685 E48.8375
G1 X124.355 Y71.093 E48.86777
G1 X124.572 Y71.157 E48.87906
G1 X125.221 Y71.429 E48.91416
G1 X125.835 Y71.774 E48.9493
G1 X126.406 Y72.185 E48.9844
G1 X126.927 Y72.659 E49.01954
G1 X127.391 Y73.189 E49.05468
G1 X127.791 Y73.768 E49.08979
G1 X128.123 Y74.389 E49.12492
G1 X128.383 Y75.043 E49.16004
G1 X128.426 Y75.204 E49.16835
G1 X128.927 Y75.659 E49.20211
G1 X129.391 Y76.189 E49.23726
G1 X129.791 Y76.768 E49.27237
G1 X130.123 Y77.389 E49.3075
G1 X130.383 Y78.043 E49.34261
G1 X130.567 Y78.723 E49.37776
G1 X130.673 Y79.419 E49.41288
G1 X130.7 Y80 E49.4419
G1 X130.7 Y120 E51.43751
G1 X130.66 Y120.703 E51.47264
G1 X130.541 Y121.397 E51.50776
G1 X130.343 Y122.072 E51.54286
G1 X130.071 Y122.721 E51.57797
G1 X129.726 Y123.335 E51.6131
G1 X129.315 Y123.906 E51.6482
G1 X128.907 Y124.355 E51.67847
G1 X128.843 Y124.572 E51.68976
G1 X128.571 Y125.221 E51.72487
G1 X128.226 Y125.835 E51.76
G1 X127.815 Y126.406 E51.7951
G1 X127.341 Y126.927 E51.83024
G1 X126.811 Y127.391 E51.86539
G1 X126.232 Y127.791 E51.9005
G1 X125.611 Y128.123 E51.93563
G1 X124.957 Y128.383 E51.97074
G1 X124.796 Y128.426 E51.97905
G1 X124.341 Y128.927 E52.01282
G1 X123.811 Y129.391 E52.04796
G1 X123.232 Y129.791 E52.08307
G1 X122.611 Y130.123 E52.1182
G1 X121.957 Y130.383 E52.15331
G1 X121.277 Y130.567 E52.18846
G1 X120.581 Y130.673 E52.22358
G1 X120 Y130.7 E52.2526
G1 X80 Y130.7 E54.24821
G1 X79.297 Y130.66 E54.28334
G1 X78.603 Y130.541 E54.31847
G1 X77.928 Y130.343 E54.35356
G1 X77.279 Y130.071 E54.38867
G1 X76.665 Y129.726 E54.42381
G1 X76.094 Y129.315 E54.45891
G1 X75.645 Y128.907 E54.48917
G1 X75.428 Y128.843 E54.50046
G1 X74.779 Y128.571 E54.53557
G1 X74.165 Y128.226 E54.5707
G1 X73.594 Y127.815 E54.6058
G1 X73.073 Y127.341 E54.64094
G1 X72.609 Y126.811 E54.67609
G1 X72.209 Y126.232 E54.7112
G1 X71.877 Y125.611 E54.74633
G1 X71.617 Y124.957 E54.78144
G1 X71.574 Y124.796 E54.78975
G1 X71.073 Y124.341 E54.82352
G1 X70.609 Y123.811 E54.85866
G1 X70.209 Y123.232 E54.89377
G1 X69.877 Y122.611 E54.9289
G1 X69.617 Y121.957 E54.96402
G1 X69.433 Y121.277 E54.99916
G1 X69.327 Y120.581 E55.03429
G1 X69.3 Y120 E55.0633
G1 X69.3 Y80 E57.05891
G1 X69.34 Y79.297 E57.09404
G1 X69.459 Y78.603 E57.12917
G1 X69.657 Y77.928 E57.16426
G1 X69.929 Y77.279 E57.19937
